Font-Source/Egyptian2/svg-remade/A32.svg

<?xml version="1.0" encoding="UTF-8" standalone="no"?>
<svg
   width="500"
   height="1000"
   id="svg2241"
   sodipodi:version="0.32"
   inkscape:version="1.4.2 (f4327f4, 2025-05-13)"
   sodipodi:docname="A32.svg"
   inkscape:output_extension="org.inkscape.output.svg.inkscape"
   sodipodi:modified="true"
   version="1.1"
   xmlns:inkscape="http://www.inkscape.org/namespaces/inkscape"
   xmlns:sodipodi="http://sodipodi.sourceforge.net/DTD/sodipodi-0.dtd"
   xmlns="http://www.w3.org/2000/svg"
   xmlns:svg="http://www.w3.org/2000/svg"
   xmlns:rdf="http://www.w3.org/1999/02/22-rdf-syntax-ns#"
   xmlns:cc="http://creativecommons.org/ns#"
   xmlns:dc="http://purl.org/dc/elements/1.1/">
  <metadata
     id="metadata2248">
    <rdf:RDF>
      <cc:Work
         rdf:about="">
        <dc:format>image/svg+xml</dc:format>
        <dc:type
           rdf:resource="http://purl.org/dc/dcmitype/StillImage" />
      </cc:Work>
    </rdf:RDF>
  </metadata>
  <defs
     id="defs2246" />
  <sodipodi:namedview
     inkscape:window-height="998"
     inkscape:window-width="1680"
     inkscape:pageshadow="2"
     inkscape:pageopacity="0.0"
     guidetolerance="10.0"
     gridtolerance="10.0"
     objecttolerance="10.0"
     borderopacity="1.0"
     bordercolor="#666666"
     pagecolor="#ffffff"
     id="base"
     inkscape:showpageshadow="2"
     inkscape:pagecheckerboard="0"
     inkscape:deskcolor="#d1d1d1"
     showguides="true"
     inkscape:zoom="12.08"
     inkscape:cx="217.4255"
     inkscape:cy="149.71027"
     inkscape:window-x="-8"
     inkscape:window-y="-8"
     inkscape:window-maximized="1"
     inkscape:current-layer="svg2241" />
  <path
     id="path2243"
     style="fill:#000000;stroke:none;stroke-width:1"
     d="m 470.5625,0.00195313 c -4.27137,-0.06472742 -7.18506,1.32624097 -8.73828,4.17382807 -2.07096,3.7967458 -1.37929,8.8027248 2.07226,15.0156248 6.21296,11.735487 10.01001,23.643985 11.39063,35.72461 1.38067,12.080625 -1.03705,26.402983 -7.25,42.970703 -6.21286,-8.283878 -8.80112,-18.811092 -7.76563,-31.582031 1.03545,-12.77094 -2.24241,-18.811408 -9.83593,-18.121094 -7.59354,32.44513 -4.83291,59.022776 8.2832,79.732426 -9.66451,54.53539 -18.29318,98.7172 -25.88672,132.54296 -56.60638,-0.69032 -89.56934,-4.4874 -98.88867,-11.39062 -9.31937,-6.90321 -26.05945,-10.70027 -50.2207,-11.39063 -23.47092,-0.69031 -32.44642,-14.15257 -26.92383,-40.38476 12.42581,-4.14196 24.3343,-12.7706 35.72461,-25.88672 11.39027,-13.11608 17.43074,-31.40989 18.12109,-54.88086 0.69029,-23.470898 -9.49203,-39.346981 -30.54687,-47.630859 -21.05481,-8.283842 -44.52505,-10.874009 -70.41211,-7.767578 -25.88705,3.106429 -44.6981,21.572685 -56.4336,55.398437 -6.90321,8.28387 -14.4974,18.98545 -22.78125,32.10156 -4.14195,8.97415 -4.14195,14.15058 0,15.53125 4.14193,1.38062 7.24934,3.10675 9.32032,5.17774 -2.98002,1.78802 -10.91675,7.43618 4.14062,9.31836 -0.58804,1.17491 -11.02,4.11614 -5.17773,7.76758 2.76128,1.72579 4.14257,6.72983 4.14257,15.01367 0,8.28389 3.10744,13.11546 9.32032,14.49609 6.21291,1.38066 13.28787,1.20824 21.22656,-0.51758 7.9387,-1.7258 11.39096,1.38161 10.35547,9.32032 -1.0355,7.93868 -11.56269,11.56336 -31.58203,10.87304 -22.78062,-0.69031 -35.10262,5.71657 -48.21875,22.97461 C 90.88197,275.84006 70.659322,301.75639 52.710938,326.95312 34.762586,352.14988 16.567722,382.64512 0,424.06445 c 21.399956,6.90321 43.146019,8.28454 65.236328,4.14258 20.019327,-3.4516 48.665992,-11.39064 85.943362,-23.81641 4.83222,28.30317 6.90321,54.88082 6.21289,79.73243 -29.68384,83.5289 -50.73831,158.42836 -63.164064,224.69922 -11.045173,51.77411 -1.380021,81.45723 28.994144,89.05078 30.37414,7.59355 68.33091,16.96488 111.13086,41.8164 15.80542,49.76489 10.80446,99.56018 -3.00196,106.8086 -13.80644,7.24835 -39.09743,15.51179 -56.35547,19.30859 -17.25807,3.79676 -28.99219,3.7846 -35.20507,9.65234 -6.2129,5.86769 -7.42175,10.6993 -3.625,14.4961 3.79679,3.79674 8.11113,6.73203 12.94336,8.80273 h 82.83789 c 12.42576,-4.14187 21.9185,-4.83374 28.47656,-2.07226 6.55806,2.76195 14.84188,3.79785 24.85156,3.10742 10.00962,-0.69036 15.01367,-8.28448 15.01367,-22.78125 -10.3548,-31.06446 -16.73829,-81.91531 -4.3125,-108.83789 14.49675,12.42586 41.62166,38.16185 33.67774,72.19726 -3.81965,42.34694 -22.52664,14.75565 -26.77539,47.49805 -0.62382,17.76166 12.50525,12.12703 32.61718,4.80664 21.39998,-7.78919 32.09961,-32.80647 32.09961,-42.58594 0,-31.0644 2.93501,-51.42921 8.80274,-61.09375 5.86774,-9.66451 8.28351,-20.70895 7.24804,-33.13476 -1.03548,-12.42604 -14.67011,-12.82359 -40.90234,-14.89453 -15.18709,-1.38061 -37.37065,-26.81165 -47.03516,-33.71485 4.83227,-23.47093 2.58247,-31.87521 -7.08203,-70.5332 1.83743,-13.40988 -3.17704,-26.81959 13.73438,-27.89648 V 560.74805 c 6.21288,-39.34828 -0.69159,-76.28077 -20.71094,-110.79688 -0.69031,-20.70966 2.58955,-47.80456 9.83789,-81.28515 7.2484,-33.48061 35.89367,-60.53711 42.79688,-60.53711 82.83862,4.83227 116.83944,3.79774 145.14257,-3.10547 8.97423,-35.89674 13.63533,-54.92054 13.98047,-77.70117 0.34517,-22.78057 -1.55336,-56.60564 -5.69531,-101.47657 7.59354,-22.09026 11.21622,-42.972324 10.87109,-62.646481 -0.34517,-19.67419 -8.10983,-40.556214 -23.29687,-62.64648462 -1.7258,-0.34516629 -3.30082,-0.52920545 -4.72461,-0.55078125 z M 220.75195,72.097656 c 12.29635,-0.582469 26.72914,1.45556 43.29688,6.115235 22.0903,6.212898 33.13476,19.330291 33.13476,39.349609 -0.69035,20.01935 -8.62935,37.1043 -23.8164,51.25586 -15.18708,14.15161 -24.85221,17.77626 -28.99414,10.87305 -4.83223,-6.2129 -1.03517,-15.18838 11.39062,-26.92383 24.09298,-22.75456 13.53985,-57.578839 -27.95703,-38.3125 -6.90323,-7.59352 -23.12605,-13.46159 -48.66797,-17.603518 5.52259,-12.425803 15.53254,-20.190444 30.0293,-23.296874 3.62418,-0.776617 7.4852,-1.262875 11.58398,-1.457032 z m -46.79101,35.109374 c 20.01929,2.07094 35.89733,7.59416 47.63281,16.56836 0,8.28383 3.62274,8.80109 10.87109,1.55273 14.80772,-14.8077 32.26885,-5.83471 22.26368,13.46094 -4.83223,9.31934 -11.21756,17.25837 -19.15625,23.81641 -7.9387,6.55808 -9.83728,13.11579 -5.69532,19.67383 4.14192,6.55809 6.55771,12.25372 7.24805,17.08593 -2.7613,33.82577 8.28516,51.42793 33.13672,52.8086 24.85162,0.69031 42.28136,4.65986 52.29101,11.9082 8.12428,12.25324 3.11909,26.38156 -11.26367,38.63477 -9.4896,7.67405 -19.60348,20.8679 -28.7539,47.09179 -1.40355,-1.79913 -3.42349,-2.41665 -6.06055,-1.85156 -4.83225,1.03548 -9.14661,3.62372 -12.94336,7.76563 -3.79679,4.14193 -11.21853,8.11141 -22.26367,11.9082 -11.04517,3.79674 -25.54189,4.65883 -43.49024,2.58789 6.21289,-8.28387 15.53123,-13.28787 27.95704,-15.01367 12.42576,-1.7258 17.25934,-5.35049 14.49804,-10.87305 -32.44508,-1.38067 -54.88084,5.52385 -67.30664,20.71094 L 160.5,366.07812 126.7168,265.83203 c 10.35483,-12.42577 23.08287,-16.76367 65.88281,-16.76367 l 7.24805,-22.78125 c -1.38066,-19.32897 -9.83691,-27.78527 -25.36914,-25.36914 -15.53224,2.41612 -21.91752,-2.24308 -19.15625,-13.97852 10.35483,-5.52259 14.1519,-9.49205 11.39062,-11.9082 -2.76129,-2.41614 -8.28453,-4.31471 -16.56836,-5.69531 0.6903,-3.45161 -2.75997,-7.2487 -10.35351,-11.39063 7.59354,-15.87741 15.18575,-27.26671 22.77929,-34.16992 7.59355,-3.45163 15.01531,-3.2792 22.26367,0.51758 7.24839,3.79676 14.66819,6.72981 22.26172,8.80078 v -5.17773 c -4.83223,-0.69032 -11.0451,-3.27853 -18.63867,-7.76563 -7.59353,-4.48709 -15.18579,-5.34918 -22.7793,-2.58789 2.76125,-4.14193 5.52188,-7.59417 8.28321,-10.35547 z m 71.45117,14.60938 c -14.41194,0.11813 -24.34773,20.57395 -21.74805,25.77343 -6.12745,2.45097 -10.9961,10.15852 -2.58789,13.98047 8.6595,3.93611 26.14006,-16.52166 30.02735,-24.85156 4.2004,-9.00091 1.99476,-14.9657 -5.69141,-14.90234 z m -71.66602,3.69336 c -2.79094,0.0944 -5.47966,0.89618 -8.06836,2.40625 l -7.24804,5.17773 v 5.17773 h 3.10547 c 9.66451,5.52257 20.36416,5.86743 32.09961,1.03516 l 11.39062,3.10742 v -6.21289 l -11.39062,-1.03711 c -7.11895,-6.64434 -13.7486,-9.86193 -19.88868,-9.65429 z m 69.94727,2.82812 c 2.26512,-0.10786 3.1834,1.13199 2.75195,3.7207 -0.69031,4.14193 -2.58884,8.28385 -5.69531,12.42579 -3.10643,4.14192 -6.21385,6.73014 -9.32031,7.76562 -3.10642,1.03547 -3.10642,-0.17144 0,-3.62305 3.10646,-3.4516 3.10646,-4.8329 0,-4.14257 -3.10642,0.69034 -3.62373,-0.69096 -1.55274,-4.14258 2.07095,-3.4516 4.83161,-6.90193 8.28321,-10.35352 2.32983,-1.03549 4.17413,-1.58567 5.5332,-1.65039 z m -71.80274,0.61328 c -2.07099,2.76127 -2.07098,5.17907 0,7.25 -3.45159,-0.69033 -5.86743,-1.38193 -7.24804,-2.07226 1.38063,-1.38065 3.79644,-3.10675 7.24804,-5.17774 z m 9.31836,2.07227 8.28516,5.17773 c -4.14192,0.69028 -7.93902,1.03516 -11.39062,1.03516 3.45171,-1.38066 4.48606,-3.45161 3.10546,-6.21289 z m 42.45508,21.74414 c 2.7613,2.07094 3.10613,3.79707 1.03516,5.17773 -2.07095,1.38061 -3.2778,1.03578 -3.62305,-1.03515 -0.34514,-2.071 0.51695,-3.45225 2.58789,-4.14258 z m -75.52929,20.07226 c 0.54357,-0.0159 1.20647,0.0207 2.00976,0.1211 2.76128,0.3452 5.86869,0.8624 9.32031,1.55273 1.28009,0.25598 5.1572,1.03516 4.14063,1.03516 h -16.56641 c -0.66625,0 -2.70932,-2.59798 1.09571,-2.70899 z m 14.43554,4.7793 c -3.8976,3.8976 -11.47709,4.15508 -12.42578,4.14258 -1.85971,-0.0245 -4.14998,0.007 -1.03515,-3.10742 z m -36.98437,136.52734 16.27539,52.9668 c -29.68383,2.76129 -59.673387,8.58226 -69.337892,9.96289 14.496778,-17.94836 37.185122,-47.05227 53.062502,-62.92969 z m 151.42383,53.61329 c -5.72413,21.03658 -10.88667,48.4082 -15.03321,84.26367 L 176.03125,469.625 c -1.38063,-19.32899 -3.79639,-43.14407 -7.24805,-71.44727 -0.69032,0 2.4171,-1.03649 9.32032,-3.10742 22.0903,1.38062 42.45506,10e-4 61.09375,-4.14062 14.77308,-2.73575 27.37616,-10.45964 37.8125,-23.16992 z m -9.85547,100.83007 c 14.49674,24.85157 20.01996,56.2608 16.56836,94.22852 V 689.14844 H 122.1875 c 9.66452,-55.22573 27.26668,-121.84131 52.80859,-199.84766 z m -85.36719,240.23243 h 33.64844 c -2.07099,17.25804 6.09353,43.38168 10.92578,55.11718 -2.76128,-2.7613 -30.49914,-15.76953 -37.40235,-15.76953 -30.97197,0 -27.88157,-13.11539 -7.17187,-39.34765 z"
     sodipodi:nodetypes="sscscscccsccssssccsccssssscsscccccscsssscccsccccssssccccccsccscscssscsccccssccsssccccccssscsccccccscscccsccsccsccsssccccccccsssssssscscccccccccsccsccssscsccccccccccccccccccccccsc" />
</svg>

<?xml version="1.0" encoding="UTF-8" standalone="no"?>
<svg
   width="500"
   height="1000"
   id="svg2241"
   sodipodi:version="0.32"
   inkscape:version="1.4.2 (f4327f4, 2025-05-13)"
   sodipodi:docname="A32.svg"
   inkscape:output_extension="org.inkscape.output.svg.inkscape"
   sodipodi:modified="true"
   version="1.1"
   xmlns:inkscape="http://www.inkscape.org/namespaces/inkscape"
   xmlns:sodipodi="http://sodipodi.sourceforge.net/DTD/sodipodi-0.dtd"
   xmlns="http://www.w3.org/2000/svg"
   xmlns:svg="http://www.w3.org/2000/svg"
   xmlns:rdf="http://www.w3.org/1999/02/22-rdf-syntax-ns#"
   xmlns:cc="http://creativecommons.org/ns#"
   xmlns:dc="http://purl.org/dc/elements/1.1/">
  <metadata
     id="metadata2248">
    <rdf:RDF>
      <cc:Work
         rdf:about="">
        <dc:format>image/svg+xml</dc:format>
        <dc:type
           rdf:resource="http://purl.org/dc/dcmitype/StillImage" />
      </cc:Work>
    </rdf:RDF>
  </metadata>
  <defs
     id="defs2246" />
  <sodipodi:namedview
     inkscape:window-height="998"
     inkscape:window-width="1680"
     inkscape:pageshadow="2"
     inkscape:pageopacity="0.0"
     guidetolerance="10.0"
     gridtolerance="10.0"
     objecttolerance="10.0"
     borderopacity="1.0"
     bordercolor="#666666"
     pagecolor="#ffffff"
     id="base"
     inkscape:showpageshadow="2"
     inkscape:pagecheckerboard="0"
     inkscape:deskcolor="#d1d1d1"
     showguides="true"
     inkscape:zoom="0.755"
     inkscape:cx="562.25166"
     inkscape:cy="429.80132"
     inkscape:window-x="-8"
     inkscape:window-y="-8"
     inkscape:window-maximized="1"
     inkscape:current-layer="svg2241" />
  <path
     id="path2243"
     style="fill:#000000;stroke:none;stroke-width:1"
     d="M 470.5625 0.001953125 C 466.29113 -0.062774289 463.37744 1.3281941 461.82422 4.1757812 C 459.75326 7.972527 460.44493 12.978506 463.89648 19.191406 C 470.10944 30.926893 473.90649 42.835391 475.28711 54.916016 C 476.66778 66.996641 474.25006 81.318999 468.03711 97.886719 C 461.82425 89.602841 459.23599 79.075627 460.27148 66.304688 C 461.30693 53.533748 458.02907 47.49328 450.43555 48.183594 C 442.84201 80.628724 445.60264 107.20637 458.71875 127.91602 C 449.05424 182.45141 440.42557 226.63322 432.83203 260.45898 C 376.22565 259.76866 343.26269 255.97158 333.94336 249.06836 C 324.62399 242.16515 307.88391 238.36809 283.72266 237.67773 C 260.25174 236.98742 251.27624 223.52516 256.79883 197.29297 C 269.22464 193.15101 281.13313 184.52237 292.52344 171.40625 C 303.91371 158.29017 309.95418 139.99636 310.64453 116.52539 C 311.33482 93.054492 301.1525 77.178409 280.09766 68.894531 C 259.04285 60.610689 235.57261 58.020522 209.68555 61.126953 C 183.7985 64.233382 164.98745 82.699638 153.25195 116.52539 C 146.34874 124.80926 138.75455 135.51084 130.4707 148.62695 C 126.32875 157.6011 126.32875 162.77753 130.4707 164.1582 C 134.61263 165.53882 137.72004 167.26495 139.79102 169.33594 C 136.811 171.12396 128.87427 176.77212 143.93164 178.6543 C 143.3436 179.82921 132.91164 182.77044 138.75391 186.42188 C 141.51519 188.14767 142.89648 193.15171 142.89648 201.43555 C 142.89648 209.71944 146.00392 214.55101 152.2168 215.93164 C 158.42971 217.3123 165.50467 217.13988 173.44336 215.41406 C 181.38206 213.68826 184.83432 216.79567 183.79883 224.73438 C 182.76333 232.67306 172.23614 236.29774 152.2168 235.60742 C 129.43618 234.91711 117.11418 241.32399 103.99805 258.58203 C 90.88197 275.84006 70.659322 301.75639 52.710938 326.95312 C 34.762586 352.14988 16.567722 382.64512 0 424.06445 C 21.399956 430.96766 43.146019 432.34899 65.236328 428.20703 C 85.255655 424.75543 113.90232 416.81639 151.17969 404.39062 C 156.01191 432.69379 158.0829 459.27144 157.39258 484.12305 C 127.70874 567.65195 106.65427 642.55141 94.228516 708.82227 C 83.183343 760.59638 92.848495 790.2795 123.22266 797.87305 C 153.5968 805.4666 191.55357 814.83793 234.35352 839.68945 C 250.15894 889.45434 245.15798 939.24963 231.35156 946.49805 C 217.54512 953.7464 192.25413 962.00984 174.99609 965.80664 C 157.73802 969.6034 146.0039 969.59124 139.79102 975.45898 C 133.57812 981.32667 132.36927 986.15828 136.16602 989.95508 C 139.96281 993.75182 144.27715 996.68711 149.10938 998.75781 L 231.94727 998.75781 C 244.37303 994.61594 253.86577 993.92407 260.42383 996.68555 C 266.98189 999.4475 275.26571 1000.4834 285.27539 999.79297 C 295.28501 999.10261 300.28906 991.50849 300.28906 977.01172 C 289.93426 945.94726 283.55077 895.09641 295.97656 868.17383 C 310.47331 880.59969 337.59822 906.33568 329.6543 940.37109 C 325.83465 982.71803 307.12766 955.12674 302.87891 987.86914 C 302.25509 1005.6308 315.38416 999.99617 335.49609 992.67578 C 356.89607 984.88659 367.5957 959.86931 367.5957 950.08984 C 367.5957 919.02544 370.53071 898.66063 376.39844 888.99609 C 382.26618 879.33158 384.68195 868.28714 383.64648 855.86133 C 382.611 843.43529 368.97637 843.03774 342.74414 840.9668 C 327.55705 839.58619 305.37349 814.15515 295.70898 807.25195 C 300.54125 783.78102 298.29145 775.37674 288.62695 736.71875 C 290.46438 723.30887 285.44991 709.89916 302.36133 708.82227 L 302.36133 560.74805 C 308.57421 521.39977 301.66974 484.46728 281.65039 449.95117 C 280.96008 429.24151 284.23994 402.14661 291.48828 368.66602 C 298.73668 335.18541 327.38195 308.12891 334.28516 308.12891 C 417.12378 312.96118 451.1246 311.92665 479.42773 305.02344 C 488.40196 269.1267 493.06306 250.1029 493.4082 227.32227 C 493.75337 204.5417 491.85484 170.71663 487.71289 125.8457 C 495.30643 103.75544 498.92911 82.873376 498.58398 63.199219 C 498.23881 43.525029 490.47415 22.643005 475.28711 0.55273438 C 473.56131 0.20756809 471.98629 0.02352893 470.5625 0.001953125 z M 220.75195 72.097656 C 233.0483 71.515187 247.48109 73.553216 264.04883 78.212891 C 286.13913 84.425789 297.18359 97.543182 297.18359 117.5625 C 296.49324 137.58185 288.55424 154.6668 273.36719 168.81836 C 258.18011 182.96997 248.51498 186.59462 244.37305 179.69141 C 239.54082 173.47851 243.33788 164.50303 255.76367 152.76758 C 279.85665 130.01302 269.30352 95.188741 227.80664 114.45508 C 220.90341 106.86156 204.68059 100.99349 179.13867 96.851562 C 184.66126 84.425759 194.67121 76.661118 209.16797 73.554688 C 212.79215 72.778071 216.65317 72.291813 220.75195 72.097656 z M 173.96094 107.20703 C 193.98023 109.27797 209.85827 114.80119 221.59375 123.77539 C 221.59375 132.05922 225.21649 132.57648 232.46484 125.32812 C 247.27256 110.52042 264.73369 119.49341 254.72852 138.78906 C 249.89629 148.1084 243.51096 156.04743 235.57227 162.60547 C 227.63357 169.16355 225.73499 175.72126 229.87695 182.2793 C 234.01887 188.83739 236.43466 194.53302 237.125 199.36523 C 234.3637 233.191 245.41016 250.79316 270.26172 252.17383 C 295.11334 252.86414 312.54308 256.83369 322.55273 264.08203 C 330.67701 276.33527 325.67182 290.46359 311.28906 302.7168 C 301.79946 310.39085 291.68558 323.5847 282.53516 349.80859 C 281.13161 348.00946 279.11167 347.39194 276.47461 347.95703 C 271.64236 348.99251 267.328 351.58075 263.53125 355.72266 C 259.73446 359.86459 252.31272 363.83407 241.26758 367.63086 C 230.22241 371.4276 215.72569 372.28969 197.77734 370.21875 C 203.99023 361.93488 213.30857 356.93088 225.73438 355.20508 C 238.16014 353.47928 242.99372 349.85459 240.23242 344.33203 C 207.78734 342.95136 185.35158 349.85588 172.92578 365.04297 L 160.5 366.07812 L 126.7168 265.83203 C 137.07163 253.40626 149.79967 249.06836 192.59961 249.06836 L 199.84766 226.28711 C 198.467 206.95814 190.01075 198.50184 174.47852 200.91797 C 158.94628 203.33409 152.561 198.67489 155.32227 186.93945 C 165.6771 181.41686 169.47417 177.4474 166.71289 175.03125 C 163.9516 172.61511 158.42836 170.71654 150.14453 169.33594 C 150.83483 165.88433 147.38456 162.08724 139.79102 157.94531 C 147.38456 142.0679 154.97677 130.6786 162.57031 123.77539 C 170.16386 120.32376 177.58562 120.49619 184.83398 124.29297 C 192.08237 128.08973 199.50217 131.02278 207.0957 133.09375 L 207.0957 127.91602 C 202.26347 127.2257 196.0506 124.63749 188.45703 120.15039 C 180.8635 115.6633 173.27124 114.80121 165.67773 117.5625 C 168.43898 113.42057 171.19961 109.96833 173.96094 107.20703 z M 245.41211 121.81641 C 244.31408 121.82546 243.10413 121.95691 241.78516 122.2207 C 230.44274 124.4892 221.1139 142.4894 223.66406 147.58984 C 217.53661 150.04081 212.66796 157.74836 221.07617 161.57031 C 229.73567 165.50642 247.21623 145.04865 251.10352 136.71875 C 255.30392 127.71784 253.09828 121.75305 245.41211 121.81641 z M 173.74609 125.50977 C 170.95515 125.60415 168.26643 126.40595 165.67773 127.91602 L 158.42969 133.09375 L 158.42969 138.27148 L 161.53516 138.27148 C 171.19967 143.79405 181.89932 144.13891 193.63477 139.30664 L 205.02539 142.41406 L 205.02539 136.20117 L 193.63477 135.16406 C 186.51582 128.51972 179.88617 125.30213 173.74609 125.50977 z M 243.69336 128.33789 C 245.95848 128.23003 246.87676 129.46988 246.44531 132.05859 C 245.755 136.20052 243.85647 140.34244 240.75 144.48438 C 237.64357 148.6263 234.53615 151.21452 231.42969 152.25 C 228.32327 153.28547 228.32327 152.07856 231.42969 148.62695 C 234.53615 145.17535 234.53615 143.79405 231.42969 144.48438 C 228.32327 145.17472 227.80596 143.79342 229.87695 140.3418 C 231.9479 136.8902 234.70856 133.43987 238.16016 129.98828 C 240.48999 128.95279 242.33429 128.40261 243.69336 128.33789 z M 171.89062 128.95117 C 169.81963 131.71244 169.81964 134.13024 171.89062 136.20117 C 168.43903 135.51084 166.02319 134.81924 164.64258 134.12891 C 166.02321 132.74826 168.43902 131.02216 171.89062 128.95117 z M 181.20898 131.02344 L 189.49414 136.20117 C 185.35222 136.89145 181.55512 137.23633 178.10352 137.23633 C 181.55523 135.85567 182.58958 133.78472 181.20898 131.02344 z M 223.66406 152.76758 C 226.42536 154.83852 226.77019 156.56465 224.69922 157.94531 C 222.62827 159.32592 221.42142 158.98109 221.07617 156.91016 C 220.73103 154.83916 221.59312 153.45791 223.66406 152.76758 z M 148.13477 172.83984 C 148.67834 172.82399 149.34124 172.8605 150.14453 172.96094 C 152.90581 173.30614 156.01322 173.82334 159.46484 174.51367 C 162.24231 175.06908 163.67798 175.40125 163.77344 175.50977 L 163.77539 175.51172 L 163.77734 175.51367 L 163.77734 175.51562 L 163.77734 175.51758 L 163.7793 175.51758 L 163.7793 175.51953 L 163.7793 175.52148 L 163.77734 175.52344 L 163.77734 175.52539 L 163.77539 175.52734 C 163.76022 175.541 163.70255 175.54883 163.60547 175.54883 L 147.03906 175.54883 C 146.37281 175.54883 144.32974 172.95085 148.13477 172.83984 z M 162.57031 177.61914 C 158.67271 181.51674 151.09322 181.77422 150.14453 181.76172 C 148.28482 181.73724 145.99455 181.7691 149.10938 178.6543 L 162.57031 177.61914 z M 125.58594 314.14648 L 141.86133 367.11328 C 112.1775 369.87457 82.187943 375.69554 72.523438 377.07617 C 87.020216 359.12781 109.70856 330.0239 125.58594 314.14648 z M 277.00977 367.75977 C 271.28564 388.79635 266.1231 416.16797 261.97656 452.02344 L 176.03125 469.625 C 174.65062 450.29601 172.23486 426.48093 168.7832 398.17773 C 168.09288 398.17773 171.2003 397.14124 178.10352 395.07031 C 200.19382 396.45093 220.55858 395.07163 239.19727 390.92969 C 253.97035 388.19394 266.57343 380.47005 277.00977 367.75977 z M 267.1543 468.58984 C 281.65104 493.44141 287.17426 524.85064 283.72266 562.81836 L 283.72266 689.14844 L 122.1875 689.14844 C 131.85202 633.92271 149.45418 567.30713 174.99609 489.30078 L 267.1543 468.58984 z M 181.78711 708.82227 L 215.43555 708.82227 C 213.36456 726.08031 221.52908 752.20395 226.36133 763.93945 C 223.60005 761.17815 195.86219 748.16992 188.95898 748.16992 C 157.98701 748.16992 161.07741 735.05453 181.78711 708.82227 z " />
</svg>
